img/icon-work.svg

<svg width="16" height="16" viewBox="0 0 16 16" fill="none" xmlns="http://www.w3.org/2000/svg">
<g clip-path="url(#clip0_227_77)">
<path d="M7.24976 9.56681L5.66382 10.1757C5.55526 10.2182 5.45614 10.1969 5.36646 10.112C5.27677 10.027 5.25553 9.92789 5.30273 9.81461L5.93994 8.24991L12.3474 1.84952L13.6643 3.15934L7.24976 9.56681ZM14.1953 2.63541L12.8784 1.31852L13.5227 0.68131C13.6832 0.520829 13.872 0.433508 14.0891 0.419347C14.3062 0.400467 14.488 0.461828 14.6343 0.603429L14.8538 0.822912C15.019 0.988114 15.0968 1.18164 15.0874 1.40348C15.078 1.6206 14.9906 1.81648 14.8254 1.99112L14.1953 2.63541Z" fill="black"/>
<path d="M0.410156 6.58643C0.410156 5.68018 0.558838 4.84001 0.856201 4.06592C1.15356 3.29183 1.58073 2.61686 2.1377 2.04102C2.69938 1.46045 3.37199 1.00968 4.15552 0.688721C4.93905 0.363037 5.81462 0.200195 6.78223 0.200195C7.51855 0.200195 8.25252 0.311117 8.98413 0.532959C9.72046 0.750081 10.4214 1.05924 11.0869 1.46045L10.0178 2.53662C9.49862 2.2487 8.95581 2.0245 8.3894 1.86401C7.823 1.70353 7.25187 1.62329 6.67603 1.62329C5.69425 1.62329 4.83993 1.83569 4.11304 2.2605C3.39087 2.6853 2.82918 3.27059 2.42798 4.01636C2.02677 4.75741 1.82617 5.60229 1.82617 6.55103C1.82617 7.19295 1.92057 7.84432 2.10938 8.50513C2.29818 9.16121 2.58138 9.80078 2.95898 10.4238C3.34131 11.0469 3.81803 11.6227 4.38916 12.1514C4.96501 12.68 5.63761 13.1379 6.40698 13.5249C7.17635 13.9167 8.0472 14.2093 9.01953 14.4028C9.24137 14.4548 9.40658 14.5397 9.51514 14.6577C9.62842 14.7804 9.68506 14.9362 9.68506 15.125C9.68506 15.2855 9.64494 15.4176 9.5647 15.5215C9.48918 15.6253 9.38298 15.6985 9.24609 15.741C9.10921 15.7882 8.95345 15.8 8.77881 15.7764C7.96696 15.682 7.15747 15.4601 6.35034 15.1108C5.54793 14.7663 4.79036 14.3132 4.07764 13.7515C3.36491 13.1945 2.73242 12.5502 2.18018 11.8186C1.62793 11.0823 1.19368 10.2751 0.877441 9.39722C0.565918 8.51457 0.410156 7.57764 0.410156 6.58643ZM15.5686 8.73169C15.5686 9.6049 15.3798 10.3766 15.0022 11.0469C14.6293 11.7124 14.1101 12.2316 13.4446 12.6045C12.7791 12.9774 12.0097 13.1638 11.1365 13.1638C10.5701 13.1638 9.99658 13.0836 9.41602 12.9231C8.84017 12.7626 8.28556 12.5337 7.7522 12.2363C7.21883 11.9342 6.73031 11.5755 6.28662 11.1602L7.83008 10.5513C8.3068 10.9478 8.82601 11.264 9.3877 11.5C9.9541 11.7313 10.5158 11.8469 11.0728 11.8469C11.6392 11.8469 12.1584 11.7195 12.6304 11.4646C13.1024 11.2097 13.4776 10.8486 13.7561 10.3813C14.0346 9.90934 14.1738 9.3571 14.1738 8.72461C14.1738 8.14876 14.0771 7.57764 13.8835 7.01123C13.69 6.4401 13.4233 5.8973 13.0835 5.38281L14.1313 4.3208C14.575 4.96745 14.9243 5.66366 15.1792 6.40942C15.4388 7.15519 15.5686 7.92928 15.5686 8.73169Z" fill="#FF8133"/>
</g>
<defs>
<clipPath id="clip0_227_77">
<rect width="16" height="16" fill="white"/>
</clipPath>
</defs>
</svg>

<svg width="16" height="16" fill="none" xmlns="http://www.w3.org/2000/svg"><g clip-path="url(#clip0_227_77)"><path d="M7.25 9.567l-1.586.609c-.109.042-.208.02-.298-.064a.247.247 0 0 1-.063-.297L5.94 8.25l6.407-6.4 1.317 1.31L7.25 9.566zm6.945-6.932L12.878 1.32l.645-.638c.16-.16.349-.247.566-.262a.664.664 0 0 1 .545.184l.22.22a.747.747 0 0 1 .233.58.894.894 0 0 1-.262.588l-.63.644z" fill="#000"/><path d="M.41 6.586c0-.906.149-1.746.446-2.52A5.943 5.943 0 0 1 2.138 2.04 5.862 5.862 0 0 1 4.156.689C4.939.363 5.815.2 6.782.2c.737 0 1.47.111 2.202.333a8.973 8.973 0 0 1 2.103.927l-1.07 1.077a7.644 7.644 0 0 0-1.628-.673 6.257 6.257 0 0 0-1.713-.24c-.982 0-1.836.212-2.563.636a4.435 4.435 0 0 0-1.685 1.756c-.401.741-.602 1.586-.602 2.535 0 .642.095 1.293.283 1.954.19.656.472 1.296.85 1.919a8.19 8.19 0 0 0 1.43 1.727 8.827 8.827 0 0 0 2.018 1.374c.77.392 1.64.684 2.613.878.221.052.387.137.495.255.113.122.17.278.17.467a.63.63 0 0 1-.12.396.6.6 0 0 1-.319.22 1.008 1.008 0 0 1-.467.035 8.597 8.597 0 0 1-2.429-.665 10.1 10.1 0 0 1-2.272-1.36A10.37 10.37 0 0 1 2.18 11.82 9.218 9.218 0 0 1 .877 9.397a8.383 8.383 0 0 1-.467-2.81zM15.57 8.732c0 .873-.19 1.645-.567 2.315a3.986 3.986 0 0 1-1.557 1.557c-.666.373-1.435.56-2.309.56-.566 0-1.14-.08-1.72-.24a7.592 7.592 0 0 1-1.664-.688 7.663 7.663 0 0 1-1.465-1.076l1.543-.609a6.15 6.15 0 0 0 1.558.949 4.431 4.431 0 0 0 1.685.347c.566 0 1.085-.127 1.557-.382a2.886 2.886 0 0 0 1.126-1.084c.279-.472.418-1.024.418-1.656 0-.576-.097-1.147-.29-1.714a7.05 7.05 0 0 0-.8-1.628L14.13 4.32a8.577 8.577 0 0 1 1.048 2.088c.26.746.39 1.52.39 2.323z" fill="#FF8133"/></g><defs><clipPath id="clip0_227_77"><path fill="#fff" d="M0 0H16V16H0z"/></clipPath></defs></svg>
